RestoDelMundo/Espana/Otras Categorias/Hercules Alicante.svg

<svg xmlns="http://www.w3.org/2000/svg" viewBox="0 0 600 600"><circle cx="284.864" cy="236.568" r="235.848" fill="#e9c31e" transform="rotate(-45 284.864 236.568)"/><path fill="#21409a" d="M284.864 466.961c126.904 0 230.393-103.487 230.393-230.393 0-126.901-103.489-230.392-230.393-230.392S54.398 109.666 54.398 236.568c0 126.906 103.562 230.393 230.466 230.393"/><ellipse cx="284.864" cy="236.568" fill="#e9c31e" rx="202.821" ry="202.819" transform="rotate(-12.615 284.855 236.562)"/><path fill="#fff" d="M284.864 433.472c108.45 0 196.904-88.453 196.904-196.904 0-108.452-88.454-196.902-196.904-196.902S87.887 128.116 87.887 236.568s88.527 196.904 196.977 196.904"/><ellipse cx="284.864" cy="236.568" fill="#e9c31e" rx="157.133" ry="157.132" transform="rotate(-7.678 284.75 236.485)"/><path fill="#c8b327" d="M284.864 380.296c79.091 0 143.726-64.563 143.726-143.728S363.955 92.844 284.864 92.844c-79.165 0-143.726 64.558-143.726 143.724s64.561 143.728 143.726 143.728"/><path d="M363.207 324.423h-95.643c5.619-23.894-21.121-27.188-39.096-29.96-18.048-2.846-3.37-18.2-4.118-20.372.673-3.968-1.798-6.216-2.473-6.739-1.573-1.273-5.842-.224-4.943-2.996 8.164-8.388-1.498-9.137-4.419-9.887-1.797-1.797.974-6.215 1.349-7.639.374-1.349-.824-5.993-4.943-6.964-1.347-.3-4.12.598-11.309 0-1.649-.15-2.398-1.199-2.398-3.146-.15-6.591 8.09-22.693 18.125-41.419 2.396-4.492-2.547-6.589-3.219-11.908-.225-1.946 1.498-7.115 3.968-12.508 1.349-2.921 3.745-3.443 4.345-6.439 2.546-13.032-14.605-26.441-2.247-29.962 5.018-1.421 2.021-7.34 5.167-11.234 3.371-4.12 6.29-6.739 5.842-10.784-.224-2.248 6.666-.749 14.605-2.698 7.115-1.646 13.707-7.114 15.278-7.713 2.622-1.048 2.922 3.97 8.165 5.692s15.653 1.199 20.896-.298c5.093-1.574 10.56-1.874 13.78-1.124 3.221.672 2.774 4.269 6.219 6.589 3.445 2.323 9.135 1.199 12.957 1.574 3.818.375 5.168 2.247 9.66 3.445 4.419 1.197 8.688.526 9.587 1.724 5.542 7.638 5.841 12.057 15.654 10.785 9.585 10.786 19.173 21.645 22.318 34.004.899 3.819-1.573 2.246-3.071 4.343-1.046 3.895.673 18.2 2.172 22.394.299 5.167 1.647 11.084-.899 15.654-4.043 7.114.899 12.358-1.872 15.802-2.846 3.447-6.067 5.767-4.644 10.261 1.499 4.495-2.545 7.416-2.846 8.763-2.846 13.031-9.587 16.251-9.962 40.219-.299 18.573 5.169 36.848 8.015 42.541M267.564 324.423h95.643z"/><g fill="#1a4631"><path d="M316.096 234.023c4.945 4.643 6.667 10.185 14.757 13.78 8.087 3.67 21.42 4.942 32.203 7.34-14.23-10.187-29.507-18.124-46.96-21.12M338.341 229.604c3.818 5.019 4.867 10.934 10.636 15.578 5.767 4.644 14.754 4.719 20.221 7.341-6.216-5.619-12.057-12.808-17.151-16.478-5.167-3.671-8.84-5.242-13.706-6.441M310.63 201.817c3.071 4.718 5.691 9.662 9.136 14.154 3.447 4.495 8.389 8.166 12.21 12.434-1.499-5.617-3.073-11.908-7.565-16.627-4.419-4.644-9.139-6.667-13.781-9.961M321.041 181.521c.898 7.863.373 16.026 3.068 23.368 2.699 7.339 8.539 12.731 12.81 19.173 0-8.988-.15-14.829-2.396-22.543-2.249-7.791-8.314-15.206-13.482-19.998M344.034 210.804c2.171 4.794 3.294 14.531 7.862 20.972 4.495 6.441 11.311 9.137 16.628 14.304.225-7.79-1.049-12.357-5.617-19.323-4.494-6.89-12.207-11.984-18.873-15.953M293.178 202.265c3.52 5.395 7.415 12.135 10.711 15.955 3.371 3.893 5.018 4.568 9.661 6.44 4.569 1.948 12.132 3.37 18.125 4.868-10.036-5.992-16.776-13.558-21.795-18.274-5.093-4.644-11.309-6.665-16.702-8.989M270.11 168.638c2.621 6.59 2.247 14.08 7.865 19.322 5.692 5.244 15.876 6.442 23.669 9.513-6.817-5.093-13.558-17.077-18.202-21.121-4.644-3.97-8.687-3.144-13.332-7.714M288.835 163.844c1.048 4.494 1.498 9.512 3.072 13.331 1.496 3.82 3.592 6.366 6.363 8.988 2.848 2.621 7.565 4.043 11.087 6.141-2.999-5.244-5.393-9.737-9.961-14.007-4.494-4.268-6.516-8.385-10.561-14.453M299.096 154.931c1.721 5.992 2.471 11.984 5.466 17.602 2.924 5.618 7.714 10.337 10.111 17.525 1.574-6.666 2.772-13.781-.671-20.297-3.372-6.517-9.889-10.112-14.906-14.83M233.036 157.028c3.596 2.323 4.195 6.216 10.337 7.417 6.066 1.197 17.9-.825 28.01.148-6.141-2.846-9.811-6.665-16.627-8.014-6.889-1.423-14.53.224-21.72.449M273.481 129.317c2.396 5.691 1.722 11.457 4.343 16.776 2.697 5.319 9.514 9.362 14.53 14.006-3.37-11.459-7.789-22.32-18.873-30.782M257.603 141.899c7.04 12.133 15.428 19.475 25.838 23.818-1.647-5.167-3.145-11.834-8.987-16.253s-11.008-4.494-16.851-7.565M205.025 140.477c2.321 1.048 8.987 7.64 19.098 10.111 10.037 2.47 19.1-.45 28.686-.973-8.613-4.569-11.233-9.289-23.665-11.761-12.359-2.47-22.396.526-24.119 2.623M228.318 108.122c5.766 5.542 10.562 11.008 17.6 16.702 6.968 5.617 14.68 5.693 21.944 6.964-9.586-12.283-20.37-23.066-39.544-23.666M224.123 126.845c7.714 4.418 15.804 11.91 24.416 13.48l8.764 1.573c-4.868-4.421-7.338-9.211-13.107-11.908-5.841-2.621-13.856-2.546-20.073-3.145"/></g><path fill="#d2b622" d="m149.227 330.864 24.342 39.844V520.8l111.295 81.339L396.086 520.8V370.708l24.342-39.844Z"/><path fill="#e9c31e" d="m162.933 338.577 18.276 29.959v148.37l103.655 75.796 103.583-75.796v-148.37l18.35-29.959Z"/><path fill="#21409a" d="M178.737 349.737h212.181l-10.111 16.703v146.57l-95.943 70.18-95.941-70.18V366.44Z"/><g fill="#e9c31e"><path d="M198.958 362.094v148.147l10.038 7.263v-78.191h30.483v100.586l10.035 7.339V362.094h-10.035v67.183h-30.483v-67.183ZM320.141 362.094v185.144l10.037-7.339V439.313h35.575v-10.036h-35.575v-57.146h40.593v-10.037ZM259.55 362.094v192.485l25.314 18.5 25.316-18.5v-55.048h-10.036v49.88l-15.28 11.234-15.278-11.234v-177.28h30.558v40.668h10.036v-50.705Z"/></g></svg>

<svg enable-background="new 0 0 600 600" viewBox="0 0 600 600" xmlns="http://www.w3.org/2000/svg"><ellipse cx="284.864" cy="236.568" fill="#e9c31e" rx="235.848" ry="235.848" transform="matrix(.7071 -.7071 .7071 .7071 -83.8441 270.7184)"/><path d="M 284.864 466.961 c 126.904 0 230.393 -103.487 230.393 -230.393 c 0 -126.901 -103.489 -230.392 -230.393 -230.392 c -126.903 0 -230.466 103.49 -230.466 230.392 C 54.398 363.474 157.96 466.961 284.864 466.961 z" fill="#21409a"/><ellipse cx="284.864" cy="236.568" fill="#e9c31e" rx="202.821" ry="202.819" transform="matrix(.9759 -.2184 .2184 .9759 -44.7871 67.9201)"/><path d="M 284.864 433.472 c 108.45 0 196.904 -88.453 196.904 -196.904 c 0 -108.452 -88.454 -196.902 -196.904 -196.902 c -108.45 0 -196.977 88.45 -196.977 196.902 C 87.887 345.019 176.414 433.472 284.864 433.472 z" fill="#fff"/><ellipse cx="284.864" cy="236.568" fill="#e9c31e" rx="157.133" ry="157.132" transform="matrix(.991 -.1336 .1336 .991 -29.0427 40.164)"/><path d="M 284.864 380.296 c 79.091 0 143.726 -64.563 143.726 -143.728 S 363.955 92.844 284.864 92.844 c -79.165 0 -143.726 64.558 -143.726 143.724 S 205.699 380.296 284.864 380.296 z" fill="#c8b327"/><g><g><path d="M 363.207 324.423 h -95.643 c 5.619 -23.894 -21.121 -27.188 -39.096 -29.96 c -18.048 -2.846 -3.37 -18.2 -4.118 -20.372 c .673 -3.968 -1.798 -6.216 -2.473 -6.739 c -1.573 -1.273 -5.842 -.224 -4.943 -2.996 c 8.164 -8.388 -1.498 -9.137 -4.419 -9.887 c -1.797 -1.797 .974 -6.215 1.349 -7.639 c .374 -1.349 -.824 -5.993 -4.943 -6.964 c -1.347 -.3 -4.12 .598 -11.309 0 c -1.649 -.15 -2.398 -1.199 -2.398 -3.146 c -.15 -6.591 8.09 -22.693 18.125 -41.419 c 2.396 -4.492 -2.547 -6.589 -3.219 -11.908 c -.225 -1.946 1.498 -7.115 3.968 -12.508 c 1.349 -2.921 3.745 -3.443 4.345 -6.439 c 2.546 -13.032 -14.605 -26.441 -2.247 -29.962 c 5.018 -1.421 2.021 -7.34 5.167 -11.234 c 3.371 -4.12 6.29 -6.739 5.842 -10.784 c -.224 -2.248 6.666 -.749 14.605 -2.698 c 7.115 -1.646 13.707 -7.114 15.278 -7.713 c 2.622 -1.048 2.922 3.97 8.165 5.692 c 5.243 1.722 15.653 1.199 20.896 -.298 c 5.093 -1.574 10.56 -1.874 13.78 -1.124 c 3.221 .672 2.774 4.269 6.219 6.589 c 3.445 2.323 9.135 1.199 12.957 1.574 c 3.818 .375 5.168 2.247 9.66 3.445 c 4.419 1.197 8.688 .526 9.587 1.724 c 5.542 7.638 5.841 12.057 15.654 10.785 c 9.585 10.786 19.173 21.645 22.318 34.004 c .899 3.819 -1.573 2.246 -3.071 4.343 c -1.046 3.895 .673 18.2 2.172 22.394 c .299 5.167 1.647 11.084 -.899 15.654 c -4.043 7.114 .899 12.358 -1.872 15.802 c -2.846 3.447 -6.067 5.767 -4.644 10.261 c 1.499 4.495 -2.545 7.416 -2.846 8.763 c -2.846 13.031 -9.587 16.251 -9.962 40.219 C 354.893 300.455 360.361 318.73 363.207 324.423 z"/><path d="M 267.564 324.423 h 95.643 H 267.564 z"/></g></g><g><path d="M 316.096 234.023 c 4.945 4.643 6.667 10.185 14.757 13.78 c 8.087 3.67 21.42 4.942 32.203 7.34 C 348.826 244.956 333.549 237.019 316.096 234.023 z" fill="#1a4631"/><path d="M 338.341 229.604 c 3.818 5.019 4.867 10.934 10.636 15.578 c 5.767 4.644 14.754 4.719 20.221 7.341 c -6.216 -5.619 -12.057 -12.808 -17.151 -16.478 C 346.88 232.374 343.207 230.803 338.341 229.604 z" fill="#1a4631"/><path d="M 310.63 201.817 c 3.071 4.718 5.691 9.662 9.136 14.154 c 3.447 4.495 8.389 8.166 12.21 12.434 c -1.499 -5.617 -3.073 -11.908 -7.565 -16.627 C 319.992 207.134 315.272 205.111 310.63 201.817 z" fill="#1a4631"/><path d="M 321.041 181.521 c .898 7.863 .373 16.026 3.068 23.368 c 2.699 7.339 8.539 12.731 12.81 19.173 c 0 -8.988 -.15 -14.829 -2.396 -22.543 C 332.274 193.728 326.209 186.313 321.041 181.521 z" fill="#1a4631"/><path d="M 344.034 210.804 c 2.171 4.794 3.294 14.531 7.862 20.972 c 4.495 6.441 11.311 9.137 16.628 14.304 c .225 -7.79 -1.049 -12.357 -5.617 -19.323 C 358.413 219.867 350.7 214.773 344.034 210.804 z" fill="#1a4631"/><path d="M 293.178 202.265 c 3.52 5.395 7.415 12.135 10.711 15.955 c 3.371 3.893 5.018 4.568 9.661 6.44 c 4.569 1.948 12.132 3.37 18.125 4.868 c -10.036 -5.992 -16.776 -13.558 -21.795 -18.274 C 304.787 206.61 298.571 204.589 293.178 202.265 z" fill="#1a4631"/><path d="M 270.11 168.638 c 2.621 6.59 2.247 14.08 7.865 19.322 c 5.692 5.244 15.876 6.442 23.669 9.513 c -6.817 -5.093 -13.558 -17.077 -18.202 -21.121 C 278.798 172.382 274.755 173.208 270.11 168.638 z" fill="#1a4631"/><path d="M 288.835 163.844 c 1.048 4.494 1.498 9.512 3.072 13.331 c 1.496 3.82 3.592 6.366 6.363 8.988 c 2.848 2.621 7.565 4.043 11.087 6.141 c -2.999 -5.244 -5.393 -9.737 -9.961 -14.007 C 294.902 174.029 292.88 169.912 288.835 163.844 z" fill="#1a4631"/><path d="M 299.096 154.931 c 1.721 5.992 2.471 11.984 5.466 17.602 c 2.924 5.618 7.714 10.337 10.111 17.525 c 1.574 -6.666 2.772 -13.781 -.671 -20.297 C 310.63 163.244 304.113 159.649 299.096 154.931 z" fill="#1a4631"/><path d="M 233.036 157.028 c 3.596 2.323 4.195 6.216 10.337 7.417 c 6.066 1.197 17.9 -.825 28.01 .148 c -6.141 -2.846 -9.811 -6.665 -16.627 -8.014 C 247.867 155.156 240.226 156.803 233.036 157.028 z" fill="#1a4631"/><path d="M 273.481 129.317 c 2.396 5.691 1.722 11.457 4.343 16.776 c 2.697 5.319 9.514 9.362 14.53 14.006 C 288.984 148.64 284.565 137.779 273.481 129.317 z" fill="#1a4631"/><path d="M 257.603 141.899 c 7.04 12.133 15.428 19.475 25.838 23.818 c -1.647 -5.167 -3.145 -11.834 -8.987 -16.253 C 268.612 145.045 263.446 144.97 257.603 141.899 z" fill="#1a4631"/><path d="M 205.025 140.477 c 2.321 1.048 8.987 7.64 19.098 10.111 c 10.037 2.47 19.1 -.45 28.686 -.973 c -8.613 -4.569 -11.233 -9.289 -23.665 -11.761 C 216.785 135.384 206.748 138.38 205.025 140.477 z" fill="#1a4631"/><path d="M 228.318 108.122 c 5.766 5.542 10.562 11.008 17.6 16.702 c 6.968 5.617 14.68 5.693 21.944 6.964 C 258.276 119.505 247.492 108.722 228.318 108.122 z" fill="#1a4631"/><path d="M 224.123 126.845 c 7.714 4.418 15.804 11.91 24.416 13.48 l 8.764 1.573 c -4.868 -4.421 -7.338 -9.211 -13.107 -11.908 C 238.355 127.369 230.34 127.444 224.123 126.845 z" fill="#1a4631"/></g><path d="M 149.227 330.864 L 173.569 370.708 L 173.569 520.8 L 284.864 602.139 L 396.086 520.8 L 396.086 370.708 L 420.428 330.864 Z" fill="#d2b622"/><path d="M 162.933 338.577 L 181.209 368.536 L 181.209 516.906 L 284.864 592.702 L 388.447 516.906 L 388.447 368.536 L 406.797 338.577 Z" fill="#e9c31e"/><path d="M 178.737 349.737 L 390.918 349.737 L 380.807 366.44 L 380.807 513.01 L 284.864 583.19 L 188.923 513.01 L 188.923 366.44 Z" fill="#21409a"/><g><path d="M 198.958 362.094 L 198.958 510.241 L 208.996 517.504 L 208.996 439.313 L 239.479 439.313 L 239.479 539.899 L 249.514 547.238 L 249.514 362.094 L 239.479 362.094 L 239.479 429.277 L 208.996 429.277 L 208.996 362.094 Z" fill="#e9c31e"/><path d="M 320.141 362.094 L 320.141 547.238 L 330.178 539.899 L 330.178 439.313 L 365.753 439.313 L 365.753 429.277 L 330.178 429.277 L 330.178 372.131 L 370.771 372.131 L 370.771 362.094 Z" fill="#e9c31e"/><path d="M 259.55 362.094 L 259.55 554.579 L 284.864 573.079 L 310.18 554.579 L 310.18 499.531 L 300.144 499.531 L 300.144 549.411 L 284.864 560.645 L 269.586 549.411 L 269.586 372.131 L 300.144 372.131 L 300.144 412.799 L 310.18 412.799 L 310.18 362.094 Z" fill="#e9c31e"/></g></svg>
